docs/images/icons/alarm.svg

<svg width="20.000000" height="20.000000" viewBox="0 0 20 20" fill="none" xmlns="http://www.w3.org/2000/svg" xmlns:xlink="http://www.w3.org/1999/xlink">
	<desc>
			Created with Pixso.
	</desc>
	<defs/>
	<path id="Vector" d="M10 18.3333C9.01514 18.3333 8.03979 18.1394 7.12988 17.7625C6.21997 17.3855 5.39307 16.8331 4.69678 16.1367C4.00024 15.4402 3.44775 14.6134 3.0708 13.7035C2.69409 12.7935 2.5 11.8183 2.5 10.8333C2.5 9.84843 2.69409 8.87317 3.0708 7.96323C3.44775 7.05328 4.00024 6.22649 4.69678 5.53004C5.39307 4.83362 6.21997 4.28116 7.12988 3.90425C8.03979 3.52734 9.01514 3.33336 10 3.33336C11.989 3.33336 13.8967 4.12352 15.3032 5.53004C16.7097 6.93657 17.5 8.84422 17.5 10.8333C17.5 12.8225 16.7097 14.7301 15.3032 16.1367C13.8967 17.5432 11.989 18.3333 10 18.3333ZM10 16.6667C10.7661 16.6667 11.5247 16.5158 12.2322 16.2227C12.9399 15.9295 13.583 15.4998 14.1248 14.9581C14.6665 14.4165 15.0962 13.7734 15.3892 13.0657C15.6824 12.3579 15.8333 11.5994 15.8333 10.8333C15.8333 10.0673 15.6824 9.30876 15.3892 8.60103C15.0962 7.8933 14.6665 7.25024 14.1248 6.70856C13.583 6.16689 12.9399 5.73721 12.2322 5.44406C11.5247 5.15089 10.7661 5.00002 10 5.00002C8.45288 5.00002 6.96924 5.61459 5.87524 6.70856C4.78125 7.80252 4.16675 9.28625 4.16675 10.8333C4.16675 12.3804 4.78125 13.8642 5.87524 14.9581C6.96924 16.0521 8.45288 16.6667 10 16.6667ZM10.8333 10.8333L13.3333 10.8333L13.3333 12.5L9.16675 12.5L9.16675 6.66669L10.8333 6.66669L10.8333 10.8333ZM1.45581 5.23502L4.40161 2.28918L5.58081 3.46751L2.6333 6.41418L1.45581 5.23502ZM15.5974 2.28918L18.5442 5.23502L17.3657 6.41418L14.4192 3.46751L15.5984 2.28918L15.5974 2.28918Z" fill="#BDBDC0" fill-opacity="1.000000" fill-rule="nonzero"/>
</svg>

<svg width="20" height="20" fill="none" xmlns="http://www.w3.org/2000/svg"><path d="M10 18.333a7.5 7.5 0 1 1 0-15 7.5 7.5 0 0 1 0 15Zm0-1.666A5.833 5.833 0 1 0 10 5a5.833 5.833 0 0 0 0 11.666Zm.833-5.834h2.5V12.5H9.167V6.667h1.666v4.166ZM1.456 5.235l2.946-2.946L5.58 3.468 2.633 6.414 1.456 5.235Zm14.141-2.946 2.947 2.946-1.178 1.18-2.947-2.947 1.18-1.179h-.002Z" fill="#BDBDC0"/></svg>
